src/telerik-icons/solid/align-justify.svg

<?xml version="1.0" encoding="utf-8"?>
<svg xmlns="http://www.w3.org/2000/svg" width="512" height="512" viewBox="0 0 512 512">
  <path d="M448 160H64v-32h384v32zm0-96H64v32h384V64zM64 352h384v-32H64v32zm0-64h384v-32H64v32zm0-64h384v-32H64v32zm0 192h384v-32H64v32z"/>
</svg>

<?xml version="1.0" encoding="utf-8"?>
<!-- Generator: Adobe Illustrator 19.2.1, SVG Export Plug-In . SVG Version: 6.00 Build 0)  -->
<svg xmlns="http://www.w3.org/2000/svg" width="512" height="512" viewBox="0 0 512 512">
<path d="M448,160H64v-32h384V160z M448,64H64v32h384V64z M64,352h384v-32H64V352z M64,288h384v-32H64V288z M64,224h384v-32H64V224z
	 M64,416h384v-32H64V416z" />
</svg>
